X: 11283
Q: "Moderate."
M: 6/4
L: 1/4
K: F
c2A d2c | d2g e2e |\
(fe)d (cB)A | (GA)(G/F/) F2F |\
c<cA d2c | dg2 e2e |\
(fe)d (=Bc)d | (GA)=B c2c |\
(df)e {d}^c2c |\
d2A B2A | F2E D2D |\
fed cf2 | (df)e f2e |\
fed cf2 | (df)e f2 |]


